X:1
T:Cabri Waltz
R:Waltz
M:3/4
%%printtempo 0
Q:180
K:G
%%printtempo 0
(D B,>A,)|:\
"G"G,2 B,3D|D3G, B,>G,|"C"C2 (E3G)|(E3G FE|
"D"D2) F2 A2|1 A4 ((3FED)|"G"G2 (B3c)|B3 (D B,>A,):|2 B3 (d (3ABA)|"G"(G4-GA|
G3) A B>d|:"G"g4 ((3gag)|"B7"f4 (Ac)|"C"(e3g e)d|"G"B4 ((3Bc^c|"D"d3 e) d=c|
[1A3 (F A>c)|"C"(e3 g e)d|"G"B3 (A Bd):|2 A3 D F>A|"G"(G4- GA)|G6|]
